X:1
T:Title
%%score { ( 1 3 ) | ( 2 4 ) }
L:1/8
M:4/4
K:G
V:1 treble nm="Grand Piano"
V:3 treble 
V:2 bass 
V:4 bass 
V:1
 z4 z2[Q:1/4=100] D>D | G>G G>G G>D G>A | B>B B>B B>A B>c | d>d d>e d>B A>G | [DFA]6 [CD]>[CD] | %5
 [B,DG]>[B,DG] [B,DG]>[B,DG] [B,DG]>[G,B,D] G>A | B>B B>B B>[FA] B>c | %7
 d>d d>[Ge] [Gd]>[GB] [FA]>[FB] | [B,DG]6 z2 | d2 d2 d4 | [Fc]2 [Fc]2 [Fc]4 | B>B B>[FA] B>d d>B | %12
 [FA]6 B>c | d2 d2 d4 | [EGc]>[EGc] [EGc]>[EGc] [EGc]2 [Ge]2 | %15
 [Gd]>[Gd] [Gd]>[DGB] [CFA]>[B,DG] [DB]>[CDA] |[M:7/8] [G,G]2- [G,-EG-]2 [G,DG]3 |] %17
V:2
 z4 z2 [G,B,]>[G,B,] | [G,B,D]>[G,B,D] [G,B,D]>[G,B,D] [G,B,D]>[G,B,][K:treble] [G,B,D]>[G,CD] | %2
 [G,DG]>[G,DG] [G,DG]>[G,DG] [G,DG]>[G,DF] [G,DG]>[G,DG] | %3
 [G,B,G]>[G,B,G] [G,B,G]>[G,CG] [G,B,G]>[G,DG] [A,DF]>[K:bass][A,^CE] | D,6 D,>D, | %5
 G,,>G,, G,,>G,, G,,>G,,[K:treble] [G,B,D]>[G,CD] | %6
 [G,DG]>[G,DG] [G,DG]>[G,DG] [G,DG]>[D,D] [G,DG]>[G,DG] | %7
 [G,B,G]>[G,B,G] [G,B,G]>[K:bass][C,C] [D,B,]>[D,D] [D,C]>[D,C] | [G,,G,]6 z2 | %9
 [G,B,G]2 [G,B,G]2 [G,B,G]4 | [D,A,]2 [D,A,]2 [D,D]4 | %11
 [G,DG]>[G,DG] [G,DG]>[D,D] [G,DG]>[B,DG] [B,DG]>[G,DG] | [D,D]6 [G,DG]>[G,DG] | %13
 [G,B,G]2 [G,B,G]2 [G,B,G]4 | C,>C, C,>C, C,2 [C,C]2 | [D,B,]>[D,B,] [D,B,]>D, D,>D, D,>D, | %16
[M:7/8] z2 C2 B,3 |] %17
V:3
 x8 | x8 | x8 | x8 | x8 | x8 | x8 | x8 | x8 | x8 | x8 | x8 | x8 | x8 | x8 | x8 | %16
[M:7/8] [B,D]2 z z z z2 |] %17
V:4
 x8 | x6[K:treble] x2 | x8 | x15/2[K:bass] x/ | x8 | x6[K:treble] x2 | x8 | x7/2[K:bass] x9/2 | %8
 x8 | x8 | x8 | x8 | x8 | x8 | x8 | x8 |[M:7/8] G,,-G,,-G,,- G,,- G,,3 |] %17

